!!!OTL: IM AERGAEU SIND ZWEU LIEBI
!!!ARE: Europa, Mitteleuropa, Schweiz
!!!SCT: E0049
!!!YEM: Copyright 1995, estate of Helmut Schaffrath.
**kern
*ICvox
*Ivox
*M2/4
*k[f#]
*G:
{16g
16a
=1
8b
8b
8b
16a
16b
=2
8cc
8a
8r}
{16a
16b
=3
8cc
8cc
8cc
16b
16cc
=4
8dd
8b
8r}
{16cc
16ee
=5
8dd
16b
16b
8cc
8a
=6
16b
16a
16b
16cc
8b}
{16cc
16ee
=7
8dd
16b
16b
8cc
8a
=8
4.b}
==
!!!AGN: erzaehlendes Volks - Lied, Sage, Mord, Ballade ?
!!!ONB: ESAC (Essen Associative Code) Database: ERK1
!!!AMT: simple duple
!!!AIN: vox
!!!EED: Helmut Schaffrath
!!!EEV: 1.0
*-
